tools/download-figma-icons/icons/outlined-medium/power-plug.svg

<svg width="24" height="24" viewBox="0 0 24 24" fill="none" xmlns="http://www.w3.org/2000/svg">
<path fill-rule="evenodd" clip-rule="evenodd" d="M8.64884 13.7448V15.3504C8.64884 17.1984 10.1525 18.7021 12.0004 18.7021C13.8484 18.7021 15.3513 17.1984 15.3513 15.3504V13.7448H8.64884ZM16.783 12.2456H7.21714V10.4261H16.783V12.2456ZM12.0005 0C18.6167 0 24 5.38328 24 11.9995C24 16.8031 21.1479 21.1311 16.7351 23.0278H16.7343C16.7333 23.0283 16.7323 23.0289 16.7314 23.0294C16.7297 23.0303 16.7283 23.0311 16.7268 23.0316C16.7255 23.0325 16.7238 23.0326 16.7221 23.0326C16.7209 23.0327 16.7198 23.0328 16.7186 23.0331C16.2198 23.2521 15.6949 23.3653 15.1579 23.3653C13.2372 23.3653 11.6443 21.9734 11.3143 20.1472C8.96388 19.8119 7.14895 17.7915 7.14895 15.3504V13.7447H6.46723C6.0525 13.7447 5.71726 13.4095 5.71726 12.9947V9.67611C5.71726 9.26137 6.0525 8.92614 6.46723 8.92614H8.29941V4.88455C8.29941 4.46982 8.63464 4.13458 9.04938 4.13458C9.46411 4.13458 9.79934 4.46982 9.79934 4.88455V8.92614H14.2002V4.88455C14.2002 4.46982 14.5362 4.13458 14.9501 4.13458C15.3649 4.13458 15.7001 4.46982 15.7001 4.88455V8.92614H17.533C17.947 8.92614 18.283 9.26137 18.283 9.67611V12.9947C18.283 13.4095 17.947 13.7447 17.533 13.7447H16.8513V15.3504C16.8513 17.7345 15.1204 19.7182 12.851 20.1224C13.1435 21.1251 14.0614 21.8654 15.1579 21.8654C15.4901 21.8654 15.8163 21.7949 16.1276 21.6569L16.1283 21.6584C16.1301 21.6575 16.1314 21.6563 16.1326 21.6552C16.1334 21.6544 16.1342 21.6537 16.1351 21.6531C20.0019 19.9949 22.5001 16.2061 22.5001 11.9995C22.5001 6.20975 17.7895 1.49994 12.0005 1.49994C6.21074 1.49994 1.50018 6.20975 1.50018 11.9995C1.50018 14.6537 2.49239 17.1863 4.29457 19.1325C4.57656 19.4362 4.55856 19.9109 4.25482 20.1922C3.95033 20.4742 3.4771 20.4562 3.19511 20.1517C1.1342 17.928 0.000244131 15.0324 0.000244131 11.9995C0.000244131 5.38328 5.38352 0 12.0005 0ZM11.9937 15.4977C12.4084 15.4977 12.7437 15.8329 12.7437 16.2476C12.7437 16.6616 12.4084 16.9976 11.9937 16.9976C11.5797 16.9976 11.2437 16.6616 11.2437 16.2476C11.2437 15.8329 11.5797 15.4977 11.9937 15.4977Z" fill="black"/>
</svg>

<svg xmlns="http://www.w3.org/2000/svg" width="24" height="24" fill="none" viewBox="0 0 24 24"><path fill="currentColor" fill-rule="evenodd" d="M8.649 13.745v1.605A3.356 3.356 0 0 0 12 18.702a3.355 3.355 0 0 0 3.351-3.352v-1.605zm8.134-1.5H7.217v-1.819h9.566zM12 0c6.617 0 12 5.383 12 12 0 4.803-2.852 9.131-7.265 11.028l-.004.001-.004.003h-.005l-.003.001a3.9 3.9 0 0 1-1.561.332 3.91 3.91 0 0 1-3.844-3.218A4.855 4.855 0 0 1 7.15 15.35v-1.605h-.682a.75.75 0 0 1-.75-.75V9.676a.75.75 0 0 1 .75-.75H8.3V4.885a.75.75 0 1 1 1.5 0v4.041h4.4V4.885a.75.75 0 1 1 1.5 0v4.041h1.833a.75.75 0 0 1 .75.75v3.319a.75.75 0 0 1-.75.75h-.682v1.605a4.86 4.86 0 0 1-4 4.772 2.41 2.41 0 0 0 2.307 1.743q.5 0 .97-.208v.001q.003 0 .005-.003l.002-.002A10.49 10.49 0 0 0 22.5 12c0-5.79-4.71-10.5-10.5-10.5S1.5 6.21 1.5 12c0 2.654.992 5.186 2.795 7.133a.75.75 0 1 1-1.1 1.019A11.96 11.96 0 0 1 0 11.999C0 5.384 5.384 0 12 0m-.006 15.498a.75.75 0 1 1 .001 1.498.75.75 0 0 1-.001-1.498" clip-rule="evenodd"/></svg>
